X: 139043
T: STRAP THE RAZOR
Q: "Irish Jig."
R: Jig.
%R: jig
B: James Kerr "Merry Melodies" v.1 p.39 s.0 #43
Z: 2016 John Chambers <jc:trillian.mit.edu>
M: 6/8
L: 1/8
K: G
(d2c) !segno!|:\
DGG BAG | AFD FDC | DGG BAG | Add cAG |\
EGG BAG | AFD uD2uE | =FDE uF2uG | Add cAG :|
|:\
vAde u=f2ug | (a>_ba/g/) u=f2ud |\
cAG =FGA | Add cAG |\
Ade =f2g | (a>_ba/g/) =f2d |\
cAG =FGA | Add cAG :|

%%sep 1 1 500
%%sep 1 1 500

